X: 390
T:Banshee's Wail over the Mangle Pit, The
R:jig
L:1/8
M:6/8
Z:Peter Crummy
K:D
F|G3 FGF|EDB, DEF|G3 FBA|FEE E2F|!
G3 FGF|EDB, DEF|GAB ABA|1 FEE E2:|2 FEE E3||!
dcB edB|AFD DFA|dcB edc|Bcd e3|!
dcB edB|AFD DEF|1 G3 FBA|FEE E3:|2 GAB ABA|FEE E3||!
<end>
<start>
